X:1024
T:Ordale Waltz
C:Joe Buchanan's Scottish Tome - Page 615.1
I:615 1
Z:Carl Allison
R:Waltz
L:1/4
M:3/4
K:D
A | "D"F2 G | "D"A2 f | "D"e2 d | "D"A3 | "F#/D"A3 | "Abdim"d2 B | "Em7"c3 | "A7"c2 A |
"Em"G2 A | "Em"B2 g | "Em"f2 e | "Em7"B3 | "A"A3 | "C#/A7"e2 =f | "D"^f3 | "D"f2 "A7"A |
"D"F2 G | "D"A2 f | "D"e2 d | "D"A3 | "D"f2 d | "F#/D7"d e f | "G"g3 | "G"g3 |
"G"G2 g | "Gm"f2 e | "D"A2 a | "F#/D"f2 "Abdim"d | "Em7"A2 g | "A7"f2 e | "D"d3 | "D"d2 |]
A | "D"f3 | "D"d3 | "D"f e d | "D"A2 F | "D"D2 F | "D"A2 d | "A"c3 | "A"B2 A | 
"Em"g3 | "Em"B2 g | "Em"f2 e | "Em"B3 | "A"A3 | "C7/A7"e2 =f | "D"^f3 | "A7"f2 A |
"D"f3 | "D"d3 | "D"f e d | "D"A3 | "Am7"f2 d | "D7"d e f | "G"g3 | "G"g3 |
"G"B2 g | "Gm"f2 e | "D"A2 a | "F#/D"f2 "Abdim"d | "Em7"A2 g | "A7"f2 e | "D"d3 | "D"d2 |]

